X:1
T:Arrival of the Queen of Sheba
T:Arrival of the Queen of Sheba 
C:G. F. Händel (1685-1759)
%%score { 1 | ( 2 3 ) }
L:1/8
M:4/4
K:Bb
V:1 treble nm="Piano" snm="Pno."
V:2 treble 
V:3 treble 
V:1
 b/f/d/f/ b/f/d/f/ b/f/d/f/ b/f/d/f/ | c/b/a/g/ f/e/d/c/ d/B/c/d/ e/f/g/a/ | %2
 b/f/d/f/ b/f/d/f/ b/g/c/g/ b/g/c/g/ | a/g/f/g/ c[c=e] [Af]c/d/ c/d/c/d/ | %4
 c/A/F/A/ c/A/F/A/ f/d/B/d/ f/d/B/d/ | e/c/A/c/ e/c/A/c/ d/F/G/A/ B/c/d/e/ | %6
 f/d/B/d/ f/d/B/d/ f/c/A/c/ f/c/A/c/ | d/B/G/B/ d/B/G/B/ d/A/F/A/ d/A/F/A/ | %8
 b/g/e/g/ b/g/e/g/ b/f/d/f/ b/f/d/f/ | e/f/g/f/ e/d/c/B/ A/B/c/B/ A/G/F/E/ | %10
 D/F/E/G/ F/A/G/B/ A/c/B/d/ c/e/d/f/ | e/f/e/f/ g/f/e/d/ c/d/c/d/ e/f/e/f/ | %12
 g/f/g/f/ e/d/e/d/ c/d/c/d/ e/f/e/f/ | g/f/g/f/ e/d/e/d/ c/d/c/d/ e/d/e/c/ | %14
 d/f/e/g/ f/a/g/b/ ag/f/ b[ce] | [Bd]c/B/ F[FA] [FB]2 z2 | B/c/d/e/ dc B f2 e | %17
 de/d/ ec d/e/f/g/ fe | de/d/ ec dc B2 | b/f/d/f/ b/f/d/f/ b/f/d/f/ b/f/d/f/ | %20
 c/b/a/g/ f/e/d/c/ d/ z/ z z2 | f2 g/f/e/d/ e g2 g | f/e/d/f/ e/d/c/e/ d f2 f | %23
 e/d/c/e/ d/c/B/d/ cf A/B/c/d/ | cf A/B/c/d/ cfff | f/c/A/c/ f/c/A/c/ f/c/A/c/ f/c/f/a/ | %26
 g/f/=e/d/ c/B/A/G/ A/F/G/A/ B/c/d/e/ | f2 z2 z4 | z8 | z8 | z8 | %31
 a/f/d/f/ a/f/d/f/ a/=e/c/e/ a/e/c/e/ | f/d/B/d/ f/d/B/d/ f/c/A/c/ f/c/A/c/ | %33
 B/c/d/c/ B/A/G/F/ =E2 z g | aggf baag | a/b/a/g/ g/a/g/f/ g/a/g/f/ f/g/f/=e/ | %36
 d/=e/d/c/ B/c/B/A/ G/A/G/A/ B/c/B/c/ | d/c/d/c/ B/A/B/A/ G/A/G/A/ B/c/B/c/ | %38
 d/c/d/c/ B/A/B/A/ G/A/G/A/ B/c/B/c/ | A[Af] z [B=e] [Af]c F2 | d/e/f/g/ fe d f2 e | %41
 de/d/ ec dc B2 | b/f/d/f/ b/f/d/f/ b/f/d/f/ b/f/d/f/ | c/b/a/g/ f/e/d/c/ d/B/c/d/ B/D/E/F/ | %44
 B2 z2 z4 | z8 | z8 | z8 | g/d/B/d/ g/d/B/d/ g/d/B/d/ g/d/g/b/ | %49
 a/g/^f/=e/ d/c/B/A/ B/G/A/B/ c/d/e/f/ | g2 z2 g/e/c/e/ g/e/c/e/ | f2 z2 f/d/B/d/ f/d/B/d/ | %52
 e2 z2 e/c/A/c/ e/c/A/c/ | d2 z2 g/d/B/d/ g/d/B/d/ | ^f2 z2 d/B/G/B/ d/B/G/B/ | %55
 z4 a/^f/d/f/ a/f/d/f/ | g/d/B/d/ g/d/B/d/ gf/e/ d[Gc] | [GB]2 [^FA]2 G2 z2 | %58
 b/g/e/g/ b/g/e/g/ b/f/d/f/ b/f/d/f/ | g/e/c/e/ g/e/c/e/ g/d/B/d/ g/d/B/d/ | %60
 e/c/_A/c/ e/c/A/c/ e/B/G/B/ e/B/G/B/ | _a/g/f/e/ d/c/B/_A/ G2 z2 | G/_A/B/c/ BA G g2 f | %63
 ef/e/ fd e b2 _a | g_a/g/ af gfe z | b/g/e/g/ b/g/e/g/ c'/g/=e/g/ c'/g/e/g/ | %66
 c'/a/f/a/ c'/a/f/a/ d'/a/^f/a/ d'/a/f/a/ | d'/b/g/b/ d'/b/g/b/ e'/b/g/b/ e'/b/g/b/ | %68
 e'/c'/_a/c'/ e'/c'/a/c'/ f'/c'/=a/c'/ f'/c'/a/c'/ | z8 | z8 | z8 | z8 | b/f/d/f/ b/f/d/f/ A2 z2 | %74
 c'/g/e/g/ c'/g/e/g/ d2 z2 | e/c/G/c/ d/=B/G/B/ c2 z2 | c/A/F/A/ c/A/F/A/ B2 z2 | %77
 f/d/B/d/ f/d/B/d/ G2 z2 | g/=e/c/e/ g/e/c/e/ c'/a/f/a/ c'/a/f/a/ | %79
 d'/b/g/b/ d'/b/g/b/ d'/a/f/a/ d'/a/f/a/ | b/g/e/g/ b/g/e/g/ b/f/d/f/ b/f/d/f/ | %81
!8va(! b'/g'/e'/g'/ b'/g'/e'/g'/ b'/f'/d'/f'/ b'/f'/d'/f'/ | %82
 e'/f'/g'/f'/ e'/d'/c'/b/ a/b/c'/b/ a/g/f/e/ | d/f/e/g/ f/a/g/b/ a/c'/b/d'/ c'/e'/d'/f'/ | %84
 e'/f'/e'/f'/ g'/f'/e'/d'/ c'/d'/c'/d'/ e'/f'/e'/f'/ | %85
 g'/f'/g'/f'/ e'/d'/e'/d'/ c'/d'/c'/d'/ e'/f'/e'/f'/ | %86
 g'/f'/g'/f'/ e'/d'/e'/d'/ c'/d'/c'/d'/ e'/f'/e'/c'/ | d'/f'/e'/g'/ f'/a'/g'/b'/ a'g'/f'/ b'[be'] | %88
 d'c'/b/ f[fa] [fb]2!8va)! z2 |] %89
V:2
 [DFB][DFB][DFB][DFB] [DGB][DGB][DGB][DGB] | [EGB]c[CA][EF] [DF]2 z2 | %2
 [DF][DF][DB][DB] [=EG][EG]GG | c/B/A/B/ GG FA/B/ A/B/A/B/ | z FFF [DF]3 [DF] | %5
 [CE]3 [CE] [B,D]2 z2 | DFDF CFCF | B,DB,D A,DA,D | z [GB][GB][GB] z [FB][FB][FB] | G z z2 z4 | %10
 B,CDE FGAB | z GGG z AAA | z AAA AAAA | AAAA AAAA | BABG FABG | FGFE D2 z2 | z8 | z8 | z8 | %19
 DFDF GBDB | GBAA BF B,2 | d2 e/d/c/B/ c e2 e | d/c/B/d/ c/B/A/c/ B d2 d | %23
 c/B/A/c/ B/A/G/B/ Ac F/G/A/B/ | Ad F/G/A/B/ A2 AA | FFFF FFFF | BG=EE F z z2 | %27
 F/G/A/B/ AG F C2 B, | A,B,/A,/ B,G, A,/B,/C/D/ C=E | FG/A/ BG AG F2 | %30
 c/A/F/A/ c/A/F/A/ c/G/=E/G/ c/G/E/G/ | z [FA] z [FA] z [=EA] z [EA] | %32
 z [DF] z [DF] z [CF] z [CF] | z8 | z8 | f/g/f/=e/ e/f/e/d/ e/f/e/d/ d/e/d/c/ | %36
 B/c/B/A/ G/A/G/F/ =ECEE | =EEEE EEEE | =EEEE EEEE | FFGG F2 z2 | B/c/d/e/ dc B d2 c | %41
 Bc/B/ cA BF D2 | DFDF GBDB | GBAA B z z2 | B,2 z2 z4 | z8 | z8 | z8 | B,DB,D EGBB, | %49
 CA^FD DB,G, z | z8 | z8 | z8 | z8 | z8 | z8 | z GGG GGGE | D2 [CD]2 [B,D]2 z2 | GBGB FBFB | %59
 EGEG DGDG | CECE B,EB,E | F2 z2 z4 | E/F/G/_A/ GF E B2 A | G_A/G/ AF G g2 f | ef/e/ fd eB G_A/B/ | %65
 EGBG c2 z2 | z AcA d2 z2 | z BdB e2 z2 | z cec f2 z2 | d/e/f/g/ fe d f2 e | de/d/ ec dcBA | %71
 B z z2 z4 | z8 | z8 | z8 | z8 | z8 | z8 | z8 | f/d/B/d/ f/d/B/d/ f/c/A/c/ f/c/A/c/ | %80
 d/B/G/B/ d/B/G/B/ d/A/F/A/ d/A/F/A/ | b/g/e/g/ b/g/e/g/ b/f/d/f/ b/f/d/f/ | %82
 [ceg] z z2 [FAcf] z z2 | B z FG ABcd | c/d/c/d/ e/d/c/B/ A/B/A/B/ c/d/c/d/ | %85
 e/d/e/d/ c/B/c/B/ A/B/A/B/ c/d/c/d/ | e/d/e/d/ c/B/c/B/ A/B/A/B/ c/d/c/A/ | %87
 B/d/c/e/ d/f/e/g/ f[cea][dfb][eg] | fe/d/ [Fc][Fc] [Bd]2 z2 |] %89
V:3
 x8 | x8 | x8 | x8 | x8 | x8 | x8 | x8 | x8 | x8 | x8 | x8 | x8 | x8 | x8 | x8 | x8 | x8 | x8 | %19
 x8 | x8 | x8 | x8 | x8 | x8 | x8 | x8 | x8 | x8 | x8 | x8 | x8 | x8 | x8 | x8 | x8 | x8 | x8 | %38
 x8 | x8 | x8 | x8 | x8 | x8 | x8 | x8 | x8 | x8 | x8 | x8 | x8 | x8 | x8 | x8 | x8 | x8 | x8 | %57
 x8 | x8 | x8 | x8 | x8 | x8 | x8 | x8 | x8 | x8 | x8 | x8 | x8 | x8 | x8 | x8 | x8 | x8 | x8 | %76
 x8 | x8 | x8 | x8 | x8 | x8 | x8 | x8 | x8 | x8 | x8 | x8 | BB x6 |] %89

